images/6605061.svg

<?xml version="1.0" encoding="UTF-8"?>
<svg xmlns="http://www.w3.org/2000/svg" xmlns:xlink="http://www.w3.org/1999/xlink" width="300pt" height="300pt" viewBox="0 0 300 300" version="1.1">
<defs>
<g>
<symbol overflow="visible" id="glyph0-0">
<path style="stroke:none;" d="M 0.453125 1.59375 L 0.453125 -6.34375 L 4.953125 -6.34375 L 4.953125 1.59375 Z M 0.953125 1.09375 L 4.453125 1.09375 L 4.453125 -5.84375 L 0.953125 -5.84375 Z M 0.953125 1.09375 "/>
</symbol>
<symbol overflow="visible" id="glyph0-1">
<path style="stroke:none;" d="M 0.890625 -6.5625 L 2.078125 -6.5625 L 4.984375 -1.078125 L 4.984375 -6.5625 L 5.84375 -6.5625 L 5.84375 0 L 4.65625 0 L 1.75 -5.484375 L 1.75 0 L 0.890625 0 Z M 0.890625 -6.5625 "/>
</symbol>
<symbol overflow="visible" id="glyph0-2">
<path style="stroke:none;" d="M 0.890625 -6.5625 L 1.765625 -6.5625 L 1.765625 -3.875 L 5 -3.875 L 5 -6.5625 L 5.890625 -6.5625 L 5.890625 0 L 5 0 L 5 -3.125 L 1.765625 -3.125 L 1.765625 0 L 0.890625 0 Z M 0.890625 -6.5625 "/>
</symbol>
<symbol overflow="visible" id="glyph0-3">
<path style="stroke:none;" d="M 0.890625 -6.5625 L 4.65625 -6.5625 L 4.65625 -5.8125 L 1.765625 -5.8125 L 1.765625 -3.875 L 4.375 -3.875 L 4.375 -3.140625 L 1.765625 -3.140625 L 1.765625 0 L 0.890625 0 Z M 0.890625 -6.5625 "/>
</symbol>
</g>
</defs>
<g id="surface46905">
<rect x="0" y="0" width="300" height="300" style="fill:rgb(100%,100%,100%);fill-opacity:1;stroke:none;"/>
<path style="fill:none;stroke-width:1.2;stroke-linecap:butt;stroke-linejoin:miter;stroke:rgb(0%,0%,0%);stroke-opacity:1;stroke-miterlimit:10;" d="M 66.910156 110.167969 L 78.511719 124.351562 "/>
<path style="fill:none;stroke-width:1.2;stroke-linecap:butt;stroke-linejoin:miter;stroke:rgb(0%,0%,0%);stroke-opacity:1;stroke-miterlimit:10;" d="M 78.511719 124.351562 L 96.597656 121.394531 "/>
<path style="fill:none;stroke-width:1.2;stroke-linecap:butt;stroke-linejoin:miter;stroke:rgb(0%,0%,0%);stroke-opacity:1;stroke-miterlimit:10;" d="M 96.597656 121.394531 L 102.398438 128.484375 "/>
<path style="fill:none;stroke-width:1.2;stroke-linecap:butt;stroke-linejoin:miter;stroke:rgb(0%,0%,100%);stroke-opacity:1;stroke-miterlimit:10;" d="M 102.398438 128.484375 L 108.199219 135.574219 "/>
<path style="fill:none;stroke-width:1.2;stroke-linecap:butt;stroke-linejoin:miter;stroke:rgb(0%,0%,100%);stroke-opacity:1;stroke-miterlimit:10;" d="M 108.199219 135.574219 L 117.347656 135.050781 "/>
<path style="fill:none;stroke-width:1.2;stroke-linecap:butt;stroke-linejoin:miter;stroke:rgb(0%,0%,0%);stroke-opacity:1;stroke-miterlimit:10;" d="M 117.347656 135.050781 L 126.496094 134.523438 "/>
<path style="fill:none;stroke-width:1.2;stroke-linecap:butt;stroke-linejoin:miter;stroke:rgb(0%,0%,0%);stroke-opacity:1;stroke-miterlimit:10;" d="M 103.546875 153.300781 L 105.875 144.4375 "/>
<path style="fill:none;stroke-width:1.2;stroke-linecap:butt;stroke-linejoin:miter;stroke:rgb(0%,0%,100%);stroke-opacity:1;stroke-miterlimit:10;" d="M 105.875 144.4375 L 108.199219 135.574219 "/>
<path style=" stroke:none;fill-rule:nonzero;fill:rgb(100%,100%,100%);fill-opacity:1;" d="M 105.199219 130.074219 L 112.199219 130.074219 L 112.199219 141.074219 L 105.199219 141.074219 Z M 105.199219 130.074219 "/>
<g style="fill:rgb(0%,0%,100%);fill-opacity:1;">
  <use xlink:href="#glyph0-1" x="105.199219" y="138.737305"/>
</g>
<path style="fill:none;stroke-width:1.2;stroke-linecap:butt;stroke-linejoin:miter;stroke:rgb(0%,0%,0%);stroke-opacity:1;stroke-miterlimit:10;" d="M 126.496094 134.523438 L 133.148438 151.597656 "/>
<path style="fill:none;stroke-width:1.2;stroke-linecap:butt;stroke-linejoin:miter;stroke:rgb(0%,0%,0%);stroke-opacity:1;stroke-miterlimit:10;" d="M 131.179688 134.667969 L 136.5 148.324219 "/>
<path style="fill:none;stroke-width:1.2;stroke-linecap:butt;stroke-linejoin:miter;stroke:rgb(0%,0%,100%);stroke-opacity:1;stroke-miterlimit:10;" d="M 137.957031 120.226562 L 132.226562 127.375 "/>
<path style="fill:none;stroke-width:1.2;stroke-linecap:butt;stroke-linejoin:miter;stroke:rgb(0%,0%,0%);stroke-opacity:1;stroke-miterlimit:10;" d="M 132.226562 127.375 L 126.496094 134.523438 "/>
<path style="fill:none;stroke-width:1.2;stroke-linecap:butt;stroke-linejoin:miter;stroke:rgb(0%,0%,0%);stroke-opacity:1;stroke-miterlimit:10;" d="M 133.148438 151.597656 L 151.261719 154.375 "/>
<path style="fill:none;stroke-width:1.2;stroke-linecap:butt;stroke-linejoin:miter;stroke:rgb(0%,0%,0%);stroke-opacity:1;stroke-miterlimit:10;" d="M 133.148438 151.597656 L 126.058594 157.402344 "/>
<path style="fill:none;stroke-width:1.2;stroke-linecap:butt;stroke-linejoin:miter;stroke:rgb(0%,0%,100%);stroke-opacity:1;stroke-miterlimit:10;" d="M 126.058594 157.402344 L 118.964844 163.203125 "/>
<path style="fill:none;stroke-width:1.2;stroke-linecap:butt;stroke-linejoin:miter;stroke:rgb(0%,0%,0%);stroke-opacity:1;stroke-miterlimit:10;" d="M 151.261719 154.375 L 156.992188 147.226562 "/>
<path style="fill:none;stroke-width:1.2;stroke-linecap:butt;stroke-linejoin:miter;stroke:rgb(0%,0%,100%);stroke-opacity:1;stroke-miterlimit:10;" d="M 156.992188 147.226562 L 162.722656 140.074219 "/>
<path style="fill:none;stroke-width:1.2;stroke-linecap:butt;stroke-linejoin:miter;stroke:rgb(0%,0%,0%);stroke-opacity:1;stroke-miterlimit:10;" d="M 149.042969 150.246094 L 153.628906 144.527344 "/>
<path style="fill:none;stroke-width:1.2;stroke-linecap:butt;stroke-linejoin:miter;stroke:rgb(0%,0%,100%);stroke-opacity:1;stroke-miterlimit:10;" d="M 153.628906 144.527344 L 158.210938 138.808594 "/>
<path style="fill:none;stroke-width:1.2;stroke-linecap:butt;stroke-linejoin:miter;stroke:rgb(0%,0%,0%);stroke-opacity:1;stroke-miterlimit:10;" d="M 151.261719 154.375 L 154.589844 162.910156 "/>
<path style="fill:none;stroke-width:1.2;stroke-linecap:butt;stroke-linejoin:miter;stroke:rgb(0%,0%,100%);stroke-opacity:1;stroke-miterlimit:10;" d="M 154.589844 162.910156 L 157.914062 171.449219 "/>
<path style="fill:none;stroke-width:1.2;stroke-linecap:butt;stroke-linejoin:miter;stroke:rgb(0%,0%,100%);stroke-opacity:1;stroke-miterlimit:10;" d="M 162.722656 140.074219 L 159.394531 131.539062 "/>
<path style="fill:none;stroke-width:1.2;stroke-linecap:butt;stroke-linejoin:miter;stroke:rgb(0%,0%,0%);stroke-opacity:1;stroke-miterlimit:10;" d="M 159.394531 131.539062 L 156.070312 123 "/>
<path style=" stroke:none;fill-rule:nonzero;fill:rgb(100%,100%,100%);fill-opacity:1;" d="M 159.722656 134.574219 L 166.722656 134.574219 L 166.722656 145.574219 L 159.722656 145.574219 Z M 159.722656 134.574219 "/>
<g style="fill:rgb(0%,0%,100%);fill-opacity:1;">
  <use xlink:href="#glyph0-1" x="159.722656" y="143.237305"/>
</g>
<path style="fill:none;stroke-width:1.2;stroke-linecap:butt;stroke-linejoin:miter;stroke:rgb(0%,0%,0%);stroke-opacity:1;stroke-miterlimit:10;" d="M 156.070312 123 L 147.011719 121.613281 "/>
<path style="fill:none;stroke-width:1.2;stroke-linecap:butt;stroke-linejoin:miter;stroke:rgb(0%,0%,100%);stroke-opacity:1;stroke-miterlimit:10;" d="M 147.011719 121.613281 L 137.957031 120.226562 "/>
<path style="fill:none;stroke-width:1.2;stroke-linecap:butt;stroke-linejoin:miter;stroke:rgb(0%,0%,0%);stroke-opacity:1;stroke-miterlimit:10;" d="M 153.605469 126.984375 L 146.359375 125.875 "/>
<path style="fill:none;stroke-width:1.2;stroke-linecap:butt;stroke-linejoin:miter;stroke:rgb(0%,0%,100%);stroke-opacity:1;stroke-miterlimit:10;" d="M 146.359375 125.875 L 139.113281 124.765625 "/>
<path style="fill:none;stroke-width:1.2;stroke-linecap:butt;stroke-linejoin:miter;stroke:rgb(0%,0%,0%);stroke-opacity:1;stroke-miterlimit:10;" d="M 156.070312 123 L 167.53125 108.703125 "/>
<path style=" stroke:none;fill-rule:nonzero;fill:rgb(100%,100%,100%);fill-opacity:1;" d="M 134.957031 114.726562 L 141.957031 114.726562 L 141.957031 125.726562 L 134.957031 125.726562 Z M 134.957031 114.726562 "/>
<g style="fill:rgb(0%,0%,100%);fill-opacity:1;">
  <use xlink:href="#glyph0-1" x="134.957031" y="123.389648"/>
</g>
<path style="fill:none;stroke-width:1.2;stroke-linecap:butt;stroke-linejoin:miter;stroke:rgb(0%,0%,100%);stroke-opacity:1;stroke-miterlimit:10;" d="M 157.914062 171.449219 L 166.972656 172.835938 "/>
<path style="fill:none;stroke-width:1.2;stroke-linecap:butt;stroke-linejoin:miter;stroke:rgb(0%,0%,0%);stroke-opacity:1;stroke-miterlimit:10;" d="M 166.972656 172.835938 L 176.027344 174.222656 "/>
<path style=" stroke:none;fill-rule:nonzero;fill:rgb(100%,100%,100%);fill-opacity:1;" d="M 150.914062 165.949219 L 164.914062 165.949219 L 164.914062 176.949219 L 150.914062 176.949219 Z M 150.914062 165.949219 "/>
<g style="fill:rgb(0%,0%,100%);fill-opacity:1;">
  <use xlink:href="#glyph0-1" x="150.914062" y="174.612305"/>
  <use xlink:href="#glyph0-2" x="157.891602" y="174.612305"/>
</g>
<path style="fill:none;stroke-width:1.2;stroke-linecap:butt;stroke-linejoin:miter;stroke:rgb(0%,0%,0%);stroke-opacity:1;stroke-miterlimit:10;" d="M 176.027344 174.222656 L 182.683594 191.296875 "/>
<path style="fill:none;stroke-width:1.2;stroke-linecap:butt;stroke-linejoin:miter;stroke:rgb(0%,0%,0%);stroke-opacity:1;stroke-miterlimit:10;" d="M 176.027344 174.222656 L 187.488281 159.925781 "/>
<path style="fill:none;stroke-width:1.2;stroke-linecap:butt;stroke-linejoin:miter;stroke:rgb(0%,0%,0%);stroke-opacity:1;stroke-miterlimit:10;" d="M 187.488281 159.925781 L 205.601562 162.699219 "/>
<path style="fill:none;stroke-width:1.2;stroke-linecap:butt;stroke-linejoin:miter;stroke:rgb(0%,0%,0%);stroke-opacity:1;stroke-miterlimit:10;" d="M 205.601562 162.699219 L 217.0625 148.402344 "/>
<path style="fill:none;stroke-width:1.2;stroke-linecap:butt;stroke-linejoin:miter;stroke:rgb(0%,0%,0%);stroke-opacity:1;stroke-miterlimit:10;" d="M 217.0625 148.402344 L 226.121094 149.789062 "/>
<path style="fill:none;stroke-width:1.2;stroke-linecap:butt;stroke-linejoin:miter;stroke:rgb(0%,0%,100%);stroke-opacity:1;stroke-miterlimit:10;" d="M 226.121094 149.789062 L 235.175781 151.175781 "/>
<path style="fill:none;stroke-width:1.2;stroke-linecap:butt;stroke-linejoin:miter;stroke:rgb(0%,0%,100%);stroke-opacity:1;stroke-miterlimit:10;" d="M 235.175781 151.175781 L 240.90625 144.027344 "/>
<path style="fill:none;stroke-width:1.2;stroke-linecap:butt;stroke-linejoin:miter;stroke:rgb(0%,0%,0%);stroke-opacity:1;stroke-miterlimit:10;" d="M 240.90625 144.027344 L 246.636719 136.878906 "/>
<path style="fill:none;stroke-width:1.2;stroke-linecap:butt;stroke-linejoin:miter;stroke:rgb(0%,0%,100%);stroke-opacity:1;stroke-miterlimit:10;" d="M 235.175781 151.175781 L 238.503906 159.714844 "/>
<path style="fill:none;stroke-width:1.2;stroke-linecap:butt;stroke-linejoin:miter;stroke:rgb(0%,0%,0%);stroke-opacity:1;stroke-miterlimit:10;" d="M 238.503906 159.714844 L 241.828125 168.25 "/>
<path style=" stroke:none;fill-rule:nonzero;fill:rgb(100%,100%,100%);fill-opacity:1;" d="M 232.175781 145.675781 L 239.175781 145.675781 L 239.175781 156.675781 L 232.175781 156.675781 Z M 232.175781 145.675781 "/>
<g style="fill:rgb(0%,0%,100%);fill-opacity:1;">
  <use xlink:href="#glyph0-1" x="232.175781" y="154.338867"/>
</g>
<path style="fill:none;stroke-width:1.2;stroke-linecap:butt;stroke-linejoin:miter;stroke:rgb(0%,0%,0%);stroke-opacity:1;stroke-miterlimit:10;" d="M 246.636719 136.878906 L 264.75 139.652344 "/>
<path style="fill:none;stroke-width:1.2;stroke-linecap:butt;stroke-linejoin:miter;stroke:rgb(0%,0%,0%);stroke-opacity:1;stroke-miterlimit:10;" d="M 241.828125 168.25 L 259.941406 171.027344 "/>
<path style="fill:none;stroke-width:1.2;stroke-linecap:butt;stroke-linejoin:miter;stroke:rgb(0%,0%,100%);stroke-opacity:1;stroke-miterlimit:10;" d="M 118.964844 163.203125 L 111.257812 158.25 "/>
<path style="fill:none;stroke-width:1.2;stroke-linecap:butt;stroke-linejoin:miter;stroke:rgb(0%,0%,0%);stroke-opacity:1;stroke-miterlimit:10;" d="M 111.257812 158.25 L 103.546875 153.300781 "/>
<path style="fill:none;stroke-width:1.2;stroke-linecap:butt;stroke-linejoin:miter;stroke:rgb(0%,0%,100%);stroke-opacity:1;stroke-miterlimit:10;" d="M 119.753906 158.585938 L 113.585938 154.625 "/>
<path style="fill:none;stroke-width:1.2;stroke-linecap:butt;stroke-linejoin:miter;stroke:rgb(0%,0%,0%);stroke-opacity:1;stroke-miterlimit:10;" d="M 113.585938 154.625 L 107.417969 150.664062 "/>
<path style=" stroke:none;fill-rule:nonzero;fill:rgb(100%,100%,100%);fill-opacity:1;" d="M 115.964844 157.703125 L 122.964844 157.703125 L 122.964844 168.703125 L 115.964844 168.703125 Z M 115.964844 157.703125 "/>
<g style="fill:rgb(0%,0%,100%);fill-opacity:1;">
  <use xlink:href="#glyph0-1" x="115.964844" y="166.366211"/>
</g>
<path style="fill:none;stroke-width:1.2;stroke-linecap:butt;stroke-linejoin:miter;stroke:rgb(0%,0%,0%);stroke-opacity:1;stroke-miterlimit:10;" d="M 103.546875 153.300781 L 86.472656 159.953125 "/>
<path style="fill:none;stroke-width:1.2;stroke-linecap:butt;stroke-linejoin:miter;stroke:rgb(0%,0%,0%);stroke-opacity:1;stroke-miterlimit:10;" d="M 86.472656 159.953125 L 72.175781 148.492188 "/>
<path style="fill:none;stroke-width:1.2;stroke-linecap:butt;stroke-linejoin:miter;stroke:rgb(0%,0%,0%);stroke-opacity:1;stroke-miterlimit:10;" d="M 82.347656 162.171875 L 70.90625 153.003906 "/>
<path style="fill:none;stroke-width:1.2;stroke-linecap:butt;stroke-linejoin:miter;stroke:rgb(0%,0%,0%);stroke-opacity:1;stroke-miterlimit:10;" d="M 83.699219 178.066406 L 86.472656 159.953125 "/>
<path style="fill:none;stroke-width:1.2;stroke-linecap:butt;stroke-linejoin:miter;stroke:rgb(0%,0%,0%);stroke-opacity:1;stroke-miterlimit:10;" d="M 72.175781 148.492188 L 55.101562 155.148438 "/>
<path style="fill:none;stroke-width:1.2;stroke-linecap:butt;stroke-linejoin:miter;stroke:rgb(0%,0%,0%);stroke-opacity:1;stroke-miterlimit:10;" d="M 55.101562 155.148438 L 52.324219 173.261719 "/>
<path style="fill:none;stroke-width:1.2;stroke-linecap:butt;stroke-linejoin:miter;stroke:rgb(0%,0%,0%);stroke-opacity:1;stroke-miterlimit:10;" d="M 59.085938 157.609375 L 56.863281 172.101562 "/>
<path style="fill:none;stroke-width:1.2;stroke-linecap:butt;stroke-linejoin:miter;stroke:rgb(0%,0%,0%);stroke-opacity:1;stroke-miterlimit:10;" d="M 52.324219 173.261719 L 66.625 184.71875 "/>
<path style="fill:none;stroke-width:1.2;stroke-linecap:butt;stroke-linejoin:miter;stroke:rgb(0%,0%,0%);stroke-opacity:1;stroke-miterlimit:10;" d="M 52.324219 173.261719 L 43.789062 176.585938 "/>
<path style="fill:none;stroke-width:1.2;stroke-linecap:butt;stroke-linejoin:miter;stroke:rgb(20%,80%,80%);stroke-opacity:1;stroke-miterlimit:10;" d="M 43.789062 176.585938 L 35.25 179.914062 "/>
<path style="fill:none;stroke-width:1.2;stroke-linecap:butt;stroke-linejoin:miter;stroke:rgb(0%,0%,0%);stroke-opacity:1;stroke-miterlimit:10;" d="M 66.625 184.71875 L 83.699219 178.066406 "/>
<path style="fill:none;stroke-width:1.2;stroke-linecap:butt;stroke-linejoin:miter;stroke:rgb(0%,0%,0%);stroke-opacity:1;stroke-miterlimit:10;" d="M 66.765625 180.039062 L 80.425781 174.714844 "/>
<path style=" stroke:none;fill-rule:nonzero;fill:rgb(100%,100%,100%);fill-opacity:1;" d="M 29.25 174.414062 L 35.25 174.414062 L 35.25 185.414062 L 29.25 185.414062 Z M 29.25 174.414062 "/>
<g style="fill:rgb(20%,80%,80%);fill-opacity:1;">
  <use xlink:href="#glyph0-3" x="29.25" y="183.077148"/>
</g>
</g>
</svg>

<svg xmlns="http://www.w3.org/2000/svg" xmlns:xlink="http://www.w3.org/1999/xlink" width="300pt" height="300pt" viewBox="0 0 300 300"><defs><symbol overflow="visible"><path d="M.453 1.594v-7.938h4.5v7.938zm.5-.5h3.5v-6.938h-3.5zm0 0"/></symbol><symbol overflow="visible" id="a"><path d="M.89-6.563H2.08l2.906 5.485v-5.484h.86V0H4.656L1.75-5.484V0H.89zm0 0"/></symbol><symbol overflow="visible" id="b"><path d="M.89-6.563h.876v2.688H5v-2.688h.89V0H5v-3.125H1.766V0H.89zm0 0"/></symbol><symbol overflow="visible" id="c"><path d="M.89-6.563h3.766v.75h-2.89v1.938h2.61v.734h-2.61V0H.89zm0 0"/></symbol></defs><g><path fill="#fff" d="M0 0h300v300H0z"/><path d="M66.91 110.168l11.602 14.184M78.512 124.352l18.086-2.957M96.598 121.395l5.8 7.09" stroke-width="1.2" stroke="#000" stroke-miterlimit="10" fill="none"/><path d="M102.398 128.484l5.8 7.09M108.2 135.574l9.148-.523" stroke-width="1.2" stroke="#00f" stroke-miterlimit="10" fill="none"/><path d="M117.348 135.05l9.148-.527M103.547 153.3l2.328-8.863" stroke-width="1.2" stroke="#000" stroke-miterlimit="10" fill="none"/><path d="M105.875 144.438l2.324-8.864" stroke-width="1.2" stroke="#00f" stroke-miterlimit="10" fill="none"/><path d="M105.2 130.074h7v11h-7zm0 0" fill="#fff"/><use xlink:href="#a" x="105.199" y="138.737" fill="#00f"/><path d="M126.496 134.523l6.652 17.075M131.18 134.668l5.32 13.656" stroke-width="1.2" stroke="#000" stroke-miterlimit="10" fill="none"/><path d="M137.957 120.227l-5.73 7.148" stroke-width="1.2" stroke="#00f" stroke-miterlimit="10" fill="none"/><path d="M132.227 127.375l-5.73 7.148M133.148 151.598l18.114 2.777M133.148 151.598l-7.09 5.804" stroke-width="1.2" stroke="#000" stroke-miterlimit="10" fill="none"/><path d="M126.06 157.402l-7.095 5.8" stroke-width="1.2" stroke="#00f" stroke-miterlimit="10" fill="none"/><path d="M151.262 154.375l5.73-7.148" stroke-width="1.2" stroke="#000" stroke-miterlimit="10" fill="none"/><path d="M156.992 147.227l5.73-7.153" stroke-width="1.2" stroke="#00f" stroke-miterlimit="10" fill="none"/><path d="M149.043 150.246l4.586-5.72" stroke-width="1.2" stroke="#000" stroke-miterlimit="10" fill="none"/><path d="M153.63 144.527l4.58-5.718" stroke-width="1.2" stroke="#00f" stroke-miterlimit="10" fill="none"/><path d="M151.262 154.375l3.328 8.535" stroke-width="1.2" stroke="#000" stroke-miterlimit="10" fill="none"/><path d="M154.59 162.91l3.324 8.54M162.723 140.074l-3.328-8.535" stroke-width="1.2" stroke="#00f" stroke-miterlimit="10" fill="none"/><path d="M159.395 131.54L156.07 123" stroke-width="1.2" stroke="#000" stroke-miterlimit="10" fill="none"/><path d="M159.723 134.574h7v11h-7zm0 0" fill="#fff"/><use xlink:href="#a" x="159.723" y="143.237" fill="#00f"/><path d="M156.07 123l-9.058-1.387" stroke-width="1.2" stroke="#000" stroke-miterlimit="10" fill="none"/><path d="M147.012 121.613l-9.055-1.386" stroke-width="1.2" stroke="#00f" stroke-miterlimit="10" fill="none"/><path d="M153.605 126.984l-7.246-1.11" stroke-width="1.2" stroke="#000" stroke-miterlimit="10" fill="none"/><path d="M146.36 125.875l-7.247-1.11" stroke-width="1.2" stroke="#00f" stroke-miterlimit="10" fill="none"/><path d="M156.07 123l11.46-14.297" stroke-width="1.2" stroke="#000" stroke-miterlimit="10" fill="none"/><path d="M134.957 114.727h7v11h-7zm0 0" fill="#fff"/><use xlink:href="#a" x="134.957" y="123.39" fill="#00f"/><path d="M157.914 171.45l9.06 1.386" stroke-width="1.2" stroke="#00f" stroke-miterlimit="10" fill="none"/><path d="M166.973 172.836l9.054 1.387" stroke-width="1.2" stroke="#000" stroke-miterlimit="10" fill="none"/><path d="M150.914 165.95h14v11h-14zm0 0" fill="#fff"/><g fill="#00f"><use xlink:href="#a" x="150.914" y="174.612"/><use xlink:href="#b" x="157.892" y="174.612"/></g><path d="M176.027 174.223l6.657 17.074M176.027 174.223l11.46-14.297M187.488 159.926l18.114 2.773M205.602 162.7l11.46-14.298M217.063 148.402l9.058 1.387" stroke-width="1.2" stroke="#000" stroke-miterlimit="10" fill="none"/><path d="M226.12 149.79l9.056 1.386M235.176 151.176l5.73-7.15" stroke-width="1.2" stroke="#00f" stroke-miterlimit="10" fill="none"/><path d="M240.906 144.027l5.73-7.148" stroke-width="1.2" stroke="#000" stroke-miterlimit="10" fill="none"/><path d="M235.176 151.176l3.328 8.54" stroke-width="1.2" stroke="#00f" stroke-miterlimit="10" fill="none"/><path d="M238.504 159.715l3.324 8.535" stroke-width="1.2" stroke="#000" stroke-miterlimit="10" fill="none"/><path d="M232.176 145.676h7v11h-7zm0 0" fill="#fff"/><use xlink:href="#a" x="232.176" y="154.339" fill="#00f"/><path d="M246.637 136.88l18.113 2.772M241.828 168.25l18.113 2.777" stroke-width="1.2" stroke="#000" stroke-miterlimit="10" fill="none"/><path d="M118.965 163.203l-7.707-4.953" stroke-width="1.2" stroke="#00f" stroke-miterlimit="10" fill="none"/><path d="M111.258 158.25l-7.71-4.95" stroke-width="1.2" stroke="#000" stroke-miterlimit="10" fill="none"/><path d="M119.754 158.586l-6.168-3.96" stroke-width="1.2" stroke="#00f" stroke-miterlimit="10" fill="none"/><path d="M113.586 154.625l-6.168-3.96" stroke-width="1.2" stroke="#000" stroke-miterlimit="10" fill="none"/><path d="M115.965 157.703h7v11h-7zm0 0" fill="#fff"/><use xlink:href="#a" x="115.965" y="166.366" fill="#00f"/><path d="M103.547 153.3l-17.074 6.653M86.473 159.953l-14.297-11.46M82.348 162.172l-11.442-9.168M83.7 178.066l2.773-18.113M72.176 148.492l-17.074 6.656M55.102 155.148l-2.778 18.114M59.086 157.61L56.863 172.1M52.324 173.262l14.3 11.457M52.324 173.262l-8.535 3.324" stroke-width="1.2" stroke="#000" stroke-miterlimit="10" fill="none"/><path d="M43.79 176.586l-8.54 3.328" stroke-width="1.2" stroke="#3cc" stroke-miterlimit="10" fill="none"/><path d="M66.625 184.72l17.074-6.654M66.766 180.04l13.66-5.325" stroke-width="1.2" stroke="#000" stroke-miterlimit="10" fill="none"/><path d="M29.25 174.414h6v11h-6zm0 0" fill="#fff"/><use xlink:href="#c" x="29.25" y="183.077" fill="#3cc"/></g></svg>
